X:1
T:Title
%%score { ( 1 3 ) | ( 2 4 ) }
L:1/8
M:4/4
K:F
V:1 treble nm="Grand Piano"
V:3 treble 
V:2 bass 
V:4 bass 
V:1
 z4 z2[Q:1/4=100] CC | FCFG A2 c>d | c4 A2 AA | [GB][Ac][GB][FA] [EG]2 [FA][GB] | %4
 [Ac][Bd][Ac][GB] A2 CC | FCFG A2 c>d | c4 A2 AA | G2 c2 e2 d2 | [Ec]6 z2 | z4 B4 | c2 A2 c4 | %11
 =B2 BA G2 d2 |[M:11/8] [EGc]-[EGc]-[EGc]-[EGc]-[EGc]-[EGc]- [EGc]3 [CGB][CGB] | %13
[M:4/4] [CFA][CFG][CFA][CGB] [FAc]2 [CFA][CFA] | %14
[M:9/8] [B,FB][B,FA][B,FB] [Fc] [Fd]2- [Fd][Be][Be] | .[Af]3 z2 [FA]- [FA] [CG]2 | %16
[M:3/4] [A,CF]6 |] %17
V:2
 z4 z2 C,C, | F,C,F,G, A,2 [F,A,F]>[F,B,F] | [F,A,F]4 [F,CF]2 [F,CF][F,CF] | %3
 [C,C][C,C][C,C][C,C] [C,C]2 [F,C][F,C] | [F,F][F,F][F,F][F,D] [F,CF]2 C,C, | %5
 F,C,F,G, A,2[K:treble] [F,A,F]>[F,B,F] | [F,A,F]4 [F,CF]2 [F,CF][F,CF] | %7
 [G,CE]2 [G,E]2 [G,CG]2 [G,=B,F]2 | [C,C]6 z2 | z4 E2 z2 | [A,CF]2 [F,CF]2 [A,F]4 | %11
 [G,DF]2 [G,DF][G,CF] [G,=B,F]2 [G,FG]2 |[M:11/8][K:bass] C,-C,-C,-C,-C,-C,- C,3 C,C, | %13
[M:4/4] F,F,F,F, F,2 F,_E, |[M:9/8] D,D,D, [C,A,] [B,,B,]2- [B,,B,][G,C][G,C] | %15
 .[F,C]3 z2 [C,C]- [C,C] [C,B,]2 |[M:3/4] [F,,F,]6 |] %17
V:3
 x8 | x8 | x8 | x8 | x8 | x8 | x8 | x8 | x8 | [EB]2 G2 z2 G2 | x8 | x8 |[M:11/8] x11 |[M:4/4] x8 | %14
[M:9/8] x9 | x9 |[M:3/4] x6 |] %17
V:4
 x8 | x8 | x8 | x8 | x8 | x6[K:treble] x2 | x8 | x8 | x8 | [C,C]2 [E,C]2 [G,C]4 | x8 | x8 | %12
[M:11/8][K:bass] x11 |[M:4/4] x8 |[M:9/8] x9 | x9 |[M:3/4] x6 |] %17

